svgs/duotone/joystick.svg

<svg xmlns="http://www.w3.org/2000/svg" viewBox="0 0 448 512"><!--! Font Awesome Pro 6.0.0-alpha3 by @fontawesome - https://fontawesome.com License - https://fontawesome.com/license (Commercial License) --><defs><style>.fa-secondary{opacity:.4}</style></defs><path class="fa-primary" d="M416 352H32c-17.62 0-32 14.38-32 32v96c0 17.62 14.38 32 32 32h384c17.62 0 32-14.38 32-32v-96C448 366.4 433.6 352 416 352zM224 224c61.86 0 112-50.14 112-112S285.9 0 224 0S112 50.14 112 112S162.1 224 224 224zM200 48C213.3 48 224 58.75 224 72S213.3 96 200 96S176 85.25 176 72S186.8 48 200 48z"/><path class="fa-secondary" d="M128 352V336C128 327.1 120.9 320 112 320h-32C71.12 320 64 327.1 64 336v16.01H128zM256 218.8V352H192V218.8C202.2 221.8 212.8 224 224 224S245.8 221.8 256 218.8z"/></svg>

<svg xmlns="http://www.w3.org/2000/svg" viewBox="0 0 448 512"><defs><style>.fa-secondary{opacity:.4}</style></defs><path d="M112 320H80a16 16 0 0 0-16 16v16h64v-16a16 16 0 0 0-16-16zm112-96c-11.2 0-21.8-2.14-32-5.2V352h64V218.8c-10.2 3.06-20.8 5.2-32 5.2z" class="fa-secondary"/><path d="M416 352H32a32 32 0 0 0-32 32v96a32 32 0 0 0 32 32h384a32 32 0 0 0 32-32v-96a32 32 0 0 0-32-32zM224 224a112 112 0 1 0-112-112 112 112 0 0 0 112 112zM200 48a24 24 0 1 1-24 24 24 24 0 0 1 24-24z" class="fa-primary"/></svg>
